static/images/logo.svg

<svg width="2639" height="725" viewBox="0 0 2639 725" fill="none" xmlns="http://www.w3.org/2000/svg">
<path d="M125.979 511C113.679 511 104.229 507.7 97.6287 501.1C91.0287 494.5 87.7287 485.05 87.7287 472.75V232C87.7287 219.7 91.0287 210.25 97.6287 203.65C104.229 197.05 113.679 193.75 125.979 193.75H281.679C294.579 193.75 304.329 196.45 310.929 201.85C317.529 207.25 320.829 215.05 320.829 225.25C320.829 246.85 307.779 257.65 281.679 257.65H168.279V317.95H272.679C298.779 317.95 311.829 328.6 311.829 349.9C311.829 360.1 308.529 367.9 301.929 373.3C295.329 378.7 285.579 381.4 272.679 381.4H168.279V447.1H281.679C307.779 447.1 320.829 457.9 320.829 479.5C320.829 489.7 317.529 497.5 310.929 502.9C304.329 508.3 294.579 511 281.679 511H125.979ZM554.685 452.95C562.185 460.45 565.935 469 565.935 478.6C565.935 487.9 562.335 496.15 555.135 503.35C547.935 510.55 539.535 514.15 529.935 514.15C520.035 514.15 511.185 510.1 503.385 502L450.735 447.1L398.535 502C390.735 510.1 381.885 514.15 371.985 514.15C362.385 514.15 353.985 510.55 346.785 503.35C339.585 496.15 335.985 487.9 335.985 478.6C335.985 469 339.735 460.45 347.235 452.95L403.035 397.15L351.735 346.75C344.235 339.25 340.485 330.7 340.485 321.1C340.485 311.5 343.935 303.1 350.835 295.9C358.035 288.7 366.435 285.1 376.035 285.1C386.235 285.1 395.085 289.3 402.585 297.7L450.735 346.75L499.335 297.7C507.135 289.6 515.985 285.55 525.885 285.55C535.485 285.55 543.735 289.15 550.635 296.35C557.835 303.25 561.435 311.35 561.435 320.65C561.435 330.25 557.685 338.95 550.185 346.75L498.885 397.15L554.685 452.95ZM773.413 439.9C780.313 439.9 785.863 442.6 790.063 448C794.563 453.4 796.813 460.45 796.813 469.15C796.813 481.15 790.963 490.3 779.263 496.6C769.063 501.7 756.913 506.05 742.813 509.65C729.013 512.95 716.263 514.6 704.563 514.6C679.963 514.6 658.513 509.95 640.213 500.65C621.913 491.35 607.813 478 597.913 460.6C588.013 443.2 583.063 422.8 583.063 399.4C583.063 377.2 587.713 357.4 597.013 340C606.613 322.3 619.813 308.65 636.613 299.05C653.713 289.15 672.913 284.2 694.213 284.2C714.913 284.2 733.063 288.7 748.663 297.7C764.263 306.7 776.263 319.45 784.663 335.95C793.363 352.45 797.713 371.8 797.713 394C797.713 400.9 796.063 406.3 792.763 410.2C789.763 413.8 785.263 415.6 779.263 415.6H660.463C662.563 430 667.213 440.35 674.413 446.65C681.613 452.95 692.263 456.1 706.363 456.1C713.863 456.1 720.763 455.35 727.063 453.85C733.363 452.05 740.413 449.65 748.213 446.65C752.713 444.85 757.063 443.35 761.263 442.15C765.763 440.65 769.813 439.9 773.413 439.9ZM696.463 338.2C685.963 338.2 677.563 341.65 671.263 348.55C664.963 355.15 661.213 364.9 660.013 377.8H730.663C728.863 351.4 717.463 338.2 696.463 338.2ZM940.883 514.6C904.883 514.6 876.383 504.4 855.383 484C834.383 463.6 823.883 435.85 823.883 400.75C823.883 377.65 828.983 357.25 839.183 339.55C849.383 321.85 863.633 308.2 881.933 298.6C900.533 289 921.683 284.2 945.383 284.2C957.983 284.2 970.583 285.85 983.183 289.15C995.783 292.45 1006.88 297.1 1016.48 303.1C1025.78 308.8 1030.43 317.5 1030.43 329.2C1030.43 338.5 1028.18 346.15 1023.68 352.15C1019.48 357.85 1013.93 360.7 1007.03 360.7C1002.53 360.7 998.183 360.1 993.983 358.9C989.783 357.4 985.133 355.3 980.033 352.6C974.033 349.9 968.933 347.95 964.733 346.75C960.533 345.25 955.883 344.5 950.783 344.5C921.083 344.5 906.233 362.65 906.233 398.95C906.233 416.95 909.983 430.75 917.483 440.35C925.283 449.65 936.383 454.3 950.783 454.3C955.883 454.3 960.533 453.7 964.733 452.5C969.233 451 974.183 448.9 979.583 446.2C985.583 443.5 990.383 441.55 993.983 440.35C997.883 438.85 1002.08 438.1 1006.58 438.1C1013.48 438.1 1019.03 441.1 1023.23 447.1C1027.73 452.8 1029.98 460.3 1029.98 469.6C1029.98 475.3 1028.78 480.55 1026.38 485.35C1023.98 489.85 1020.68 493.3 1016.48 495.7C995.783 508.3 970.583 514.6 940.883 514.6ZM1242.38 285.1C1254.68 285.1 1264.43 288.4 1271.63 295C1278.83 301.6 1282.43 310.6 1282.43 322V477.7C1282.43 488.2 1278.68 496.9 1271.18 503.8C1263.68 510.4 1253.93 513.7 1241.93 513.7C1231.13 513.7 1222.28 510.85 1215.38 505.15C1208.48 499.15 1204.88 491.2 1204.58 481.3C1197.68 492.1 1188.83 500.35 1178.03 506.05C1167.53 511.75 1155.38 514.6 1141.58 514.6C1113.08 514.6 1091.93 506.8 1078.13 491.2C1064.33 475.3 1057.43 451.3 1057.43 419.2V322C1057.43 310.6 1061.03 301.6 1068.23 295C1075.43 288.4 1085.18 285.1 1097.48 285.1C1109.78 285.1 1119.53 288.4 1126.73 295C1133.93 301.6 1137.53 310.6 1137.53 322V421C1137.53 442.6 1146.83 453.4 1165.43 453.4C1176.23 453.4 1185.08 449.5 1191.98 441.7C1198.88 433.9 1202.33 423.7 1202.33 411.1V322C1202.33 310.6 1205.93 301.6 1213.13 295C1220.33 288.4 1230.08 285.1 1242.38 285.1ZM1460.01 456.55C1480.11 457.75 1490.16 466.75 1490.16 483.55C1490.16 494.05 1486.11 501.85 1478.01 506.95C1469.91 512.05 1458.36 514.15 1443.36 513.25L1430.76 512.35C1403.76 510.25 1383.21 502.15 1369.11 488.05C1355.31 473.65 1348.41 453.7 1348.41 428.2V348.55H1335.36C1311.36 348.55 1299.36 338.65 1299.36 318.85C1299.36 299.35 1311.36 289.6 1335.36 289.6H1348.41V260.35C1348.41 248.95 1352.01 239.95 1359.21 233.35C1366.41 226.45 1376.16 223 1388.46 223C1400.76 223 1410.51 226.45 1417.71 233.35C1424.91 239.95 1428.51 248.95 1428.51 260.35V289.6H1453.26C1477.26 289.6 1489.26 299.35 1489.26 318.85C1489.26 338.65 1477.26 348.55 1453.26 348.55H1428.51V434.95C1428.51 440.65 1430.16 445.45 1433.46 449.35C1437.06 453.25 1441.56 455.35 1446.96 455.65L1460.01 456.55ZM1691.43 439.9C1698.33 439.9 1703.88 442.6 1708.08 448C1712.58 453.4 1714.83 460.45 1714.83 469.15C1714.83 481.15 1708.98 490.3 1697.28 496.6C1687.08 501.7 1674.93 506.05 1660.83 509.65C1647.03 512.95 1634.28 514.6 1622.58 514.6C1597.98 514.6 1576.53 509.95 1558.23 500.65C1539.93 491.35 1525.83 478 1515.93 460.6C1506.03 443.2 1501.08 422.8 1501.08 399.4C1501.08 377.2 1505.73 357.4 1515.03 340C1524.63 322.3 1537.83 308.65 1554.63 299.05C1571.73 289.15 1590.93 284.2 1612.23 284.2C1632.93 284.2 1651.08 288.7 1666.68 297.7C1682.28 306.7 1694.28 319.45 1702.68 335.95C1711.38 352.45 1715.73 371.8 1715.73 394C1715.73 400.9 1714.08 406.3 1710.78 410.2C1707.78 413.8 1703.28 415.6 1697.28 415.6H1578.48C1580.58 430 1585.23 440.35 1592.43 446.65C1599.63 452.95 1610.28 456.1 1624.38 456.1C1631.88 456.1 1638.78 455.35 1645.08 453.85C1651.38 452.05 1658.43 449.65 1666.23 446.65C1670.73 444.85 1675.08 443.35 1679.28 442.15C1683.78 440.65 1687.83 439.9 1691.43 439.9ZM1614.48 338.2C1603.98 338.2 1595.58 341.65 1589.28 348.55C1582.98 355.15 1579.23 364.9 1578.03 377.8H1648.68C1646.88 351.4 1635.48 338.2 1614.48 338.2ZM2099.26 346.3C2117.86 352 2132.11 361.6 2142.01 375.1C2151.91 388.3 2156.86 404.65 2156.86 424.15C2156.86 441.55 2152.21 456.85 2142.91 470.05C2133.91 482.95 2120.86 493 2103.76 500.2C2086.96 507.4 2067.16 511 2044.36 511H1924.66C1912.36 511 1902.91 507.7 1896.31 501.1C1889.71 494.5 1886.41 485.05 1886.41 472.75V232C1886.41 219.7 1889.71 210.25 1896.31 203.65C1902.91 197.05 1912.36 193.75 1924.66 193.75H2039.86C2073.16 193.75 2099.56 201.25 2119.06 216.25C2138.86 230.95 2148.76 250.9 2148.76 276.1C2148.76 292.3 2144.41 306.7 2135.71 319.3C2127.01 331.6 2114.86 340.6 2099.26 346.3ZM1966.96 318.4H2025.91C2041.51 318.4 2052.91 316 2060.11 311.2C2067.31 306.4 2070.91 298.75 2070.91 288.25C2070.91 277.15 2067.31 269.05 2060.11 263.95C2052.91 258.85 2041.51 256.3 2025.91 256.3H1966.96V318.4ZM2034.01 448.45C2050.51 448.45 2062.21 445.9 2069.11 440.8C2076.31 435.4 2079.91 426.7 2079.91 414.7C2079.91 402.7 2076.31 394.15 2069.11 389.05C2062.21 383.65 2050.51 380.95 2034.01 380.95H1966.96V448.45H2034.01ZM2233.95 513.7C2222.55 513.7 2212.95 510.7 2205.15 504.7C2197.65 498.4 2193.9 489.1 2193.9 476.8V322C2193.9 309.7 2197.65 300.55 2205.15 294.55C2212.95 288.25 2222.55 285.1 2233.95 285.1C2245.35 285.1 2254.8 288.25 2262.3 294.55C2270.1 300.55 2274 309.7 2274 322V476.8C2274 489.1 2270.1 498.4 2262.3 504.7C2254.8 510.7 2245.35 513.7 2233.95 513.7ZM2233.95 253.6C2220.45 253.6 2209.65 250.15 2201.55 243.25C2193.75 236.05 2189.85 226.6 2189.85 214.9C2189.85 203.2 2193.75 193.9 2201.55 187C2209.65 180.1 2220.45 176.65 2233.95 176.65C2247.15 176.65 2257.8 180.1 2265.9 187C2274 193.9 2278.05 203.2 2278.05 214.9C2278.05 226.6 2274 236.05 2265.9 243.25C2258.1 250.15 2247.45 253.6 2233.95 253.6ZM2517.11 285.1C2529.11 285.1 2538.71 288.55 2545.91 295.45C2553.11 302.05 2556.71 310.9 2556.71 322V484C2556.71 520.6 2545.61 548.35 2523.41 567.25C2501.51 586.15 2469.26 595.6 2426.66 595.6C2410.16 595.6 2394.56 594.1 2379.86 591.1C2365.16 588.1 2352.71 583.75 2342.51 578.05C2337.11 575.05 2332.76 571.15 2329.46 566.35C2326.46 561.55 2324.96 556.15 2324.96 550.15C2324.96 541.45 2327.06 534.4 2331.26 529C2335.76 523.6 2341.46 520.9 2348.36 520.9C2353.76 520.9 2363.51 523.15 2377.61 527.65C2386.91 530.65 2395.16 532.9 2402.36 534.4C2409.56 536.2 2416.91 537.1 2424.41 537.1C2442.71 537.1 2456.06 533.2 2464.46 525.4C2473.16 517.9 2477.51 505.9 2477.51 489.4V472.3C2470.91 482.2 2461.46 490.15 2449.16 496.15C2436.86 501.85 2423.51 504.7 2409.11 504.7C2389.91 504.7 2372.81 500.2 2357.81 491.2C2342.81 482.2 2331.11 469.45 2322.71 452.95C2314.31 436.15 2310.11 416.8 2310.11 394.9C2310.11 373 2314.31 353.65 2322.71 336.85C2331.11 320.05 2342.81 307.15 2357.81 298.15C2372.81 288.85 2389.91 284.2 2409.11 284.2C2423.81 284.2 2437.31 287.2 2449.61 293.2C2461.91 299.2 2471.36 307.45 2477.96 317.95C2478.56 307.75 2482.31 299.8 2489.21 294.1C2496.41 288.1 2505.71 285.1 2517.11 285.1ZM2433.41 444.85C2447.51 444.85 2458.46 440.5 2466.26 431.8C2474.06 423.1 2477.96 410.8 2477.96 394.9C2477.96 379 2474.06 366.55 2466.26 357.55C2458.46 348.55 2447.51 344.05 2433.41 344.05C2419.61 344.05 2408.81 348.55 2401.01 357.55C2393.21 366.25 2389.31 378.7 2389.31 394.9C2389.31 410.5 2393.21 422.8 2401.01 431.8C2409.11 440.5 2419.91 444.85 2433.41 444.85Z" fill="#266DD3"/>
</svg>

<svg width="2639" height="725" fill="none" xmlns="http://www.w3.org/2000/svg"><path d="M125.979 511c-12.3 0-21.75-3.3-28.35-9.9-6.6-6.6-9.9-16.05-9.9-28.35V232c0-12.3 3.3-21.75 9.9-28.35 6.6-6.6 16.05-9.9 28.35-9.9h155.7c12.9 0 22.65 2.7 29.25 8.1 6.6 5.4 9.9 13.2 9.9 23.4 0 21.6-13.05 32.4-39.15 32.4h-113.4v60.3h104.4c26.1 0 39.15 10.65 39.15 31.95 0 10.2-3.3 18-9.9 23.4-6.6 5.4-16.35 8.1-29.25 8.1h-104.4v65.7h113.4c26.1 0 39.15 10.8 39.15 32.4 0 10.2-3.3 18-9.9 23.4-6.6 5.4-16.35 8.1-29.25 8.1h-155.7zm428.706-58.05c7.5 7.5 11.25 16.05 11.25 25.65 0 9.3-3.6 17.55-10.8 24.75-7.2 7.2-15.6 10.8-25.2 10.8-9.9 0-18.75-4.05-26.55-12.15l-52.65-54.9-52.2 54.9c-7.8 8.1-16.65 12.15-26.55 12.15-9.6 0-18-3.6-25.2-10.8-7.2-7.2-10.8-15.45-10.8-24.75 0-9.6 3.75-18.15 11.25-25.65l55.8-55.8-51.3-50.4c-7.5-7.5-11.25-16.05-11.25-25.65 0-9.6 3.45-18 10.35-25.2 7.2-7.2 15.6-10.8 25.2-10.8 10.2 0 19.05 4.2 26.55 12.6l48.15 49.05 48.6-49.05c7.8-8.1 16.65-12.15 26.55-12.15 9.6 0 17.85 3.6 24.75 10.8 7.2 6.9 10.8 15 10.8 24.3 0 9.6-3.75 18.3-11.25 26.1l-51.3 50.4 55.8 55.8zm218.728-13.05c6.9 0 12.45 2.7 16.65 8.1 4.5 5.4 6.75 12.45 6.75 21.15 0 12-5.85 21.15-17.55 27.45-10.2 5.1-22.35 9.45-36.45 13.05-13.8 3.3-26.55 4.95-38.25 4.95-24.6 0-46.05-4.65-64.35-13.95-18.3-9.3-32.4-22.65-42.3-40.05-9.9-17.4-14.85-37.8-14.85-61.2 0-22.2 4.65-42 13.95-59.4 9.6-17.7 22.8-31.35 39.6-40.95 17.1-9.9 36.3-14.85 57.6-14.85 20.7 0 38.85 4.5 54.45 13.5 15.6 9 27.6 21.75 36 38.25 8.7 16.5 13.05 35.85 13.05 58.05 0 6.9-1.65 12.3-4.95 16.2-3 3.6-7.5 5.4-13.5 5.4h-118.8c2.1 14.4 6.75 24.75 13.95 31.05 7.2 6.3 17.85 9.45 31.95 9.45 7.5 0 14.4-.75 20.7-2.25 6.3-1.8 13.35-4.2 21.15-7.2 4.5-1.8 8.85-3.3 13.05-4.5 4.5-1.5 8.55-2.25 12.15-2.25zm-76.95-101.7c-10.5 0-18.9 3.45-25.2 10.35-6.3 6.6-10.05 16.35-11.25 29.25h70.65c-1.8-26.4-13.2-39.6-34.2-39.6zm244.42 176.4c-36 0-64.5-10.2-85.5-30.6-21-20.4-31.5-48.15-31.5-83.25 0-23.1 5.1-43.5 15.3-61.2 10.2-17.7 24.45-31.35 42.75-40.95 18.6-9.6 39.75-14.4 63.45-14.4 12.6 0 25.2 1.65 37.8 4.95 12.6 3.3 23.697 7.95 33.297 13.95 9.3 5.7 13.95 14.4 13.95 26.1 0 9.3-2.25 16.95-6.75 22.95-4.2 5.7-9.75 8.55-16.65 8.55-4.5 0-8.847-.6-13.047-1.8-4.2-1.5-8.85-3.6-13.95-6.3-6-2.7-11.1-4.65-15.3-5.85-4.2-1.5-8.85-2.25-13.95-2.25-29.7 0-44.55 18.15-44.55 54.45 0 18 3.75 31.8 11.25 41.4 7.8 9.3 18.9 13.95 33.3 13.95 5.1 0 9.75-.6 13.95-1.8 4.5-1.5 9.45-3.6 14.85-6.3 6-2.7 10.8-4.65 14.4-5.85 3.9-1.5 8.097-2.25 12.597-2.25 6.9 0 12.45 3 16.65 9 4.5 5.7 6.75 13.2 6.75 22.5 0 5.7-1.2 10.95-3.6 15.75-2.4 4.5-5.7 7.95-9.9 10.35-20.697 12.6-45.897 18.9-75.597 18.9zm301.497-229.5c12.3 0 22.05 3.3 29.25 9.9 7.2 6.6 10.8 15.6 10.8 27v155.7c0 10.5-3.75 19.2-11.25 26.1-7.5 6.6-17.25 9.9-29.25 9.9-10.8 0-19.65-2.85-26.55-8.55-6.9-6-10.5-13.95-10.8-23.85-6.9 10.8-15.75 19.05-26.55 24.75-10.5 5.7-22.65 8.55-36.45 8.55-28.5 0-49.65-7.8-63.45-23.4-13.8-15.9-20.7-39.9-20.7-72V322c0-11.4 3.6-20.4 10.8-27 7.2-6.6 16.95-9.9 29.25-9.9s22.05 3.3 29.25 9.9c7.2 6.6 10.8 15.6 10.8 27v99c0 21.6 9.3 32.4 27.9 32.4 10.8 0 19.65-3.9 26.55-11.7 6.9-7.8 10.35-18 10.35-30.6V322c0-11.4 3.6-20.4 10.8-27 7.2-6.6 16.95-9.9 29.25-9.9zm217.63 171.45c20.1 1.2 30.15 10.2 30.15 27 0 10.5-4.05 18.3-12.15 23.4-8.1 5.1-19.65 7.2-34.65 6.3l-12.6-.9c-27-2.1-47.55-10.2-61.65-24.3-13.8-14.4-20.7-34.35-20.7-59.85v-79.65h-13.05c-24 0-36-9.9-36-29.7 0-19.5 12-29.25 36-29.25h13.05v-29.25c0-11.4 3.6-20.4 10.8-27 7.2-6.9 16.95-10.35 29.25-10.35s22.05 3.45 29.25 10.35c7.2 6.6 10.8 15.6 10.8 27v29.25h24.75c24 0 36 9.75 36 29.25 0 19.8-12 29.7-36 29.7h-24.75v86.4c0 5.7 1.65 10.5 4.95 14.4 3.6 3.9 8.1 6 13.5 6.3l13.05.9zm231.42-16.65c6.9 0 12.45 2.7 16.65 8.1 4.5 5.4 6.75 12.45 6.75 21.15 0 12-5.85 21.15-17.55 27.45-10.2 5.1-22.35 9.45-36.45 13.05-13.8 3.3-26.55 4.95-38.25 4.95-24.6 0-46.05-4.65-64.35-13.95-18.3-9.3-32.4-22.65-42.3-40.05-9.9-17.4-14.85-37.8-14.85-61.2 0-22.2 4.65-42 13.95-59.4 9.6-17.7 22.8-31.35 39.6-40.95 17.1-9.9 36.3-14.85 57.6-14.85 20.7 0 38.85 4.5 54.45 13.5 15.6 9 27.6 21.75 36 38.25 8.7 16.5 13.05 35.85 13.05 58.05 0 6.9-1.65 12.3-4.95 16.2-3 3.6-7.5 5.4-13.5 5.4h-118.8c2.1 14.4 6.75 24.75 13.95 31.05 7.2 6.3 17.85 9.45 31.95 9.45 7.5 0 14.4-.75 20.7-2.25 6.3-1.8 13.35-4.2 21.15-7.2 4.5-1.8 8.85-3.3 13.05-4.5 4.5-1.5 8.55-2.25 12.15-2.25zm-76.95-101.7c-10.5 0-18.9 3.45-25.2 10.35-6.3 6.6-10.05 16.35-11.25 29.25h70.65c-1.8-26.4-13.2-39.6-34.2-39.6zm484.78 8.1c18.6 5.7 32.85 15.3 42.75 28.8 9.9 13.2 14.85 29.55 14.85 49.05 0 17.4-4.65 32.7-13.95 45.9-9 12.9-22.05 22.95-39.15 30.15-16.8 7.2-36.6 10.8-59.4 10.8h-119.7c-12.3 0-21.75-3.3-28.35-9.9-6.6-6.6-9.9-16.05-9.9-28.35V232c0-12.3 3.3-21.75 9.9-28.35 6.6-6.6 16.05-9.9 28.35-9.9h115.2c33.3 0 59.7 7.5 79.2 22.5 19.8 14.7 29.7 34.65 29.7 59.85 0 16.2-4.35 30.6-13.05 43.2-8.7 12.3-20.85 21.3-36.45 27zm-132.3-27.9h58.95c15.6 0 27-2.4 34.2-7.2 7.2-4.8 10.8-12.45 10.8-22.95 0-11.1-3.6-19.2-10.8-24.3-7.2-5.1-18.6-7.65-34.2-7.65h-58.95v62.1zm67.05 130.05c16.5 0 28.2-2.55 35.1-7.65 7.2-5.4 10.8-14.1 10.8-26.1 0-12-3.6-20.55-10.8-25.65-6.9-5.4-18.6-8.1-35.1-8.1h-67.05v67.5h67.05zm199.94 65.25c-11.4 0-21-3-28.8-9-7.5-6.3-11.25-15.6-11.25-27.9V322c0-12.3 3.75-21.45 11.25-27.45 7.8-6.3 17.4-9.45 28.8-9.45 11.4 0 20.85 3.15 28.35 9.45 7.8 6 11.7 15.15 11.7 27.45v154.8c0 12.3-3.9 21.6-11.7 27.9-7.5 6-16.95 9-28.35 9zm0-260.1c-13.5 0-24.3-3.45-32.4-10.35-7.8-7.2-11.7-16.65-11.7-28.35 0-11.7 3.9-21 11.7-27.9 8.1-6.9 18.9-10.35 32.4-10.35 13.2 0 23.85 3.45 31.95 10.35 8.1 6.9 12.15 16.2 12.15 27.9s-4.05 21.15-12.15 28.35c-7.8 6.9-18.45 10.35-31.95 10.35zm283.16 31.5c12 0 21.6 3.45 28.8 10.35 7.2 6.6 10.8 15.45 10.8 26.55v162c0 36.6-11.1 64.35-33.3 83.25-21.9 18.9-54.15 28.35-96.75 28.35-16.5 0-32.1-1.5-46.8-4.5-14.7-3-27.15-7.35-37.35-13.05-5.4-3-9.75-6.9-13.05-11.7-3-4.8-4.5-10.2-4.5-16.2 0-8.7 2.1-15.75 6.3-21.15 4.5-5.4 10.2-8.1 17.1-8.1 5.4 0 15.15 2.25 29.25 6.75 9.3 3 17.55 5.25 24.75 6.75 7.2 1.8 14.55 2.7 22.05 2.7 18.3 0 31.65-3.9 40.05-11.7 8.7-7.5 13.05-19.5 13.05-36v-17.1c-6.6 9.9-16.05 17.85-28.35 23.85-12.3 5.7-25.65 8.55-40.05 8.55-19.2 0-36.3-4.5-51.3-13.5s-26.7-21.75-35.1-38.25c-8.4-16.8-12.6-36.15-12.6-58.05s4.2-41.25 12.6-58.05c8.4-16.8 20.1-29.7 35.1-38.7 15-9.3 32.1-13.95 51.3-13.95 14.7 0 28.2 3 40.5 9s21.75 14.25 28.35 24.75c.6-10.2 4.35-18.15 11.25-23.85 7.2-6 16.5-9 27.9-9zm-83.7 159.75c14.1 0 25.05-4.35 32.85-13.05 7.8-8.7 11.7-21 11.7-36.9 0-15.9-3.9-28.35-11.7-37.35-7.8-9-18.75-13.5-32.85-13.5-13.8 0-24.6 4.5-32.4 13.5-7.8 8.7-11.7 21.15-11.7 37.35 0 15.6 3.9 27.9 11.7 36.9 8.1 8.7 18.9 13.05 32.4 13.05z" fill="#266DD3"/></svg>
